X:0342
T:Little Skirmish.
M:6/8
L:1/8
Q:3/8=120
I: || ::
Z:Jack Campin * www.campin.me.uk * 2009
K:D
G   |F2A d2A|G2B e2g|fed c2d|ecA A2
G   |F2A d2A|G2B e2g|fed edc|d3  d2||
f/g/|a2a a2g|f2f f2e|d2d dcd|ecA A2
f/g/|a2a a2g|f2f f2e|d2d edc|d3  d2:|

